X:1
T:Come, Abide Beneath His Wing
T:Come, Abide Beneath His Wing
T:J. T. Reese
T:Sarah G. Little, 1898
T:Public Domain Courtesy of the Cyber Hymnal™
T:Public Domain Courtesy of the Cyber Hymnal™
C:J. T. Reese
Z:Public Domain
Z:Courtesy of the Cyber Hymnal™
%%score ( 1 2 ) 3
L:1/8
Q:1/4=90
M:4/4
K:Eb
V:1 treble 
V:2 treble 
V:3 bass 
V:1
 [EG]>[EF] | E>[DF] [EG]>[FA] [GB]>[EG] E>E | [Ec]>[Ec] [Ec]>[Ec] [EB]2 E>[DF] | %3
w: 1.~Are you|weak and hea- vy la- dened? Is your|soul with grief op- pressed? Come, a-|
w: 2.~In the|sec- ret of His pre- sence There is|shel- ter from all harm; Come, a-|
w: 3.~He’s a|pre- sent help in trou- ble, He will|hear you when you call; Come, a-|
 [EG]>[EG] [EG]>[EG] [Ac]>[GB] [GB]>[EG] | [DF]6 [EG]>[EF] | E>[DF] [EG]>[FA] [GB]>[EG] E>E | %6
w: bide be- neath the sha- dow of His|wing. There the|cares of life are light- er, And the|
w: bide be- neath the sha- dow of His|wing. He’s a|ref- uge and a fort- ress ’Gainst the|
w: bide be- neath the sha- dow of His|wing. Give His|an- gels charge to keep you, That no|
 [Ec]>[Ec] [Ec]>[Ec] [EB]2 E>[EF] | [EG]>[EG] [EG]>[EG] [DB]>[DA] [DF]>[DG] | E6 ||"^Refrain" G>A | %10
w: wea- ry find sweet rest; Come, a-|bide be- neath the sha- dow of His|wing.||
w: fu- ry of the storm; Come, a-|bide be- neath the sha- dow of His|wing.|Come a-|
w: e- vil shall be- fall; Come, a-|bide be- neath the sha- dow of His|wing.||
 (z2 G>)B x6 | (z2 [Bd]>)[Ac] x6 | [GB]>[GB] [GB]>[GB] [Ac]>[GB] (3([GB][FA])[EG] | %13
w: |||
w: * bide,|* come|a- bide, Come, a- bide be- neath * the|
w: |||
 [DF]6 [EG]>[EF] | E>[DF] [EG]>[FA] [GB]>[EG] E>E | [Ec]>[Ec] [Ec]>[Ec] [EB]2 E>[EF] | %16
w: |||
w: sha- dow of|His wing; Are you weak and hea- vy|la- dened? Is your soul with grief|
w: |||
 [EG]>[EG] [EG]>[EG] [DB]>[DA] [DF]>[DG] | E6 |] %18
w: ||
w: op- pressed? Come, a- bide be- neath the|sha-|
w: ||
V:2
 x2 | E3/2 x3 E3/2 E/ x3/2 | x6 E3/2 x/ | x8 | x8 | E3/2 x3 E3/2 E/ x3/2 | x6 E3/2 x/ | x8 | E6 || %9
 x2 | (B6 G>G G2) | (e6 G>G G2) | x8 | x8 | E3/2 x3 E3/2 E/ x3/2 | x6 E3/2 x/ | x8 | E6 |] %18
V:3
 [E,B,]>[E,A,] | [E,G,]>[E,A,] [E,B,]>[E,B,] [E,E]>[E,B,] [E,G,]>[E,G,] | %2
 [A,,A,]>[B,,A,] [C,A,]>[D,A,] [E,G,]2 [E,G,]>[E,A,] | %3
 [E,B,]>[E,B,] [E,B,]>[E,B,] [E,E]>[E,E] [E,B,]>[E,B,] | [B,,B,]6 [E,B,]>[E,A,] | %5
 [E,G,]>[E,A,] [E,B,]>[E,B,] [E,E]>[E,B,] [E,G,]>[E,G,] | %6
 [A,,A,]>[B,,A,] [C,A,]>[D,A,] [E,G,]2 [E,G,]>[E,A,] | %7
 [E,B,]>[E,B,] [E,B,]>[E,B,] [B,,B,]>[B,,B,] [B,,A,]>[B,,A,] | [E,G,]6 || z2 | %10
 z2 [E,E]>[E,E] [E,E]2 z2 x2 | z2 [E,B,]>[E,B,] [E,B,]2 [E,E]>[E,E] x2 | %12
 [E,E]>[E,E] [E,E]>[E,E] [E,E]>[E,E] [E,B,]>[E,B,] | [B,,B,]6 [E,B,]>[E,A,] | %14
 [E,G,]>[E,A,] [E,B,]>[E,B,] [E,E]>[E,B,] [E,G,]>[E,G,] | %15
 [A,,A,]>[B,,A,] [C,A,]>[D,A,] [E,G,]2 [E,G,]>[E,A,] | %16
 [E,B,]>[E,B,] [E,B,]>[E,B,] [B,,B,]>[B,,B,] [B,,A,]>[B,,A,] | [E,G,]6 |] %18

